X: 1
T: Cauliflower, The
M: 6/8
L: 1/8
R: jig
K: Dmaj
AB |: ded cAG | EDE GED | EDE G2A | G2A GED |
ded cAG | EDE GED | EDE dcd | edc d3 :|
|:ede gag | fed cAG | EDE G2A | G2A GED |
ede gag | fed cAG | Add dcd | edc d3 :|
